src/lib/retina.svg

<svg width="20" height="20" viewBox="0 0 20 20" version="1.1" xmlns="http://www.w3.org/2000/svg" xmlns:xlink="http://www.w3.org/1999/xlink">
<title>Ellipse</title>
<desc>Created using Figma</desc>
<g id="Canvas" transform="translate(311 -2475)">
<g id="Ellipse">
<use xlink:href="#path0_fill" transform="translate(-311 2475)" fill="#000000" fill-opacity="0.3"/>
<mask id="mask0_outline_ins">
<use xlink:href="#path0_fill" fill="white" transform="translate(-311 2475)"/>
</mask>
<g mask="url(#mask0_outline_ins)">
<use xlink:href="#path1_stroke_2x" transform="translate(-311 2475)" fill="#FFFFFF" fill-opacity="0.8"/>
</g>
</g>
</g>
<defs>
<path id="path0_fill" d="M 20 10C 20 15.5228 15.5228 20 10 20C 4.47715 20 0 15.5228 0 10C 0 4.47715 4.47715 0 10 0C 15.5228 0 20 4.47715 20 10Z"/>
<path id="path1_stroke_2x" d="M 18 10C 18 14.4183 14.4183 18 10 18L 10 22C 16.6274 22 22 16.6274 22 10L 18 10ZM 10 18C 5.58172 18 2 14.4183 2 10L -2 10C -2 16.6274 3.37258 22 10 22L 10 18ZM 2 10C 2 5.58172 5.58172 2 10 2L 10 -2C 3.37258 -2 -2 3.37258 -2 10L 2 10ZM 10 2C 14.4183 2 18 5.58172 18 10L 22 10C 22 3.37258 16.6274 -2 10 -2L 10 2Z"/>
</defs>
</svg>

<?xml version="1.0" encoding="UTF-8"?>
<svg width="20" height="20" version="1.1" viewBox="0 0 20 20" xmlns="http://www.w3.org/2000/svg" xmlns:xlink="http://www.w3.org/1999/xlink">
<g transform="translate(311 -2475)">
<use transform="translate(-311 2475)" fill="#000000" fill-opacity=".3" xlink:href="#a"/>
<mask id="c">
<use transform="translate(-311 2475)" fill="white" xlink:href="#a"/>
</mask>
<g mask="url(#c)">
<use transform="translate(-311 2475)" fill="#FFFFFF" fill-opacity=".8" xlink:href="#b"/>
</g>
</g>
<defs>
<path id="a" d="m20 10c0 5.5228-4.4772 10-10 10-5.5228 0-10-4.4772-10-10 0-5.5228 4.4772-10 10-10 5.5228 0 10 4.4772 10 10z"/>
<path id="b" d="m18 10c0 4.4183-3.5817 8-8 8v4c6.6274 0 12-5.3726 12-12h-4zm-8 8c-4.4183 0-8-3.5817-8-8h-4c0 6.6274 5.3726 12 12 12v-4zm-8-8c0-4.4183 3.5817-8 8-8v-4c-6.6274 0-12 5.3726-12 12h4zm8-8c4.4183 0 8 3.5817 8 8h4c0-6.6274-5.3726-12-12-12v4z"/>
</defs>
</svg>
